src/assets/svg/EDIT.svg

<svg width="24" height="24" viewBox="0 0 24 24" fill="none" xmlns="http://www.w3.org/2000/svg">
<path d="M18.01 3.24797C18.332 2.91987 18.8569 2.91699 19.1824 3.24155L20.754 4.80865C21.0795 5.13321 21.0823 5.6623 20.7604 5.9904L20.0305 6.73417L17.2801 3.99174L18.01 3.24797Z" fill="#01488A"/>
<path d="M16.8425 4.43768L19.5929 7.18012L13.4661 13.4234L10.7157 10.681L16.8425 4.43768Z" fill="#01488A"/>
<path d="M9.4651 14.7279L10.2781 11.1269L13.0284 13.8694L9.4651 14.7279Z" fill="#01488A"/>
<path d="M6.31598 3.45172H15.1176L13.4417 5.12299H6.31598C5.4003 5.12299 4.65799 5.87124 4.65799 6.79425V17.6575C4.65799 18.5805 5.4003 19.3287 6.31598 19.3287H17.3692C18.2849 19.3287 19.0272 18.5805 19.0272 17.6575V10.2293L20.6852 8.57591V17.6575C20.6852 19.5035 19.2006 21 17.3692 21H6.31598C4.48461 21 3 19.5035 3 17.6575V6.79425C3 4.94822 4.48461 3.45172 6.31598 3.45172Z" fill="#01488A"/>
<rect x="0.05" y="0.05" width="23.9" height="23.9" stroke="#BB6BD9" stroke-width="0.1"/>
</svg>

<svg fill="none" xmlns="http://www.w3.org/2000/svg" viewBox="0 0 24 24">
  <defs/>
  <path d="M18.01 3.248a.824.824 0 011.172-.006l1.572 1.567a.84.84 0 01.006 1.181l-.73.744-2.75-2.742.73-.744zm-1.167 1.19l2.75 2.742-6.127 6.243-2.75-2.742 6.127-6.243zm-7.378 10.29l.813-3.601 2.75 2.742-3.563.859z" fill="#01488A"/>
  <path d="M6.316 3.452h8.802l-1.676 1.671H6.316c-.916 0-1.658.748-1.658 1.671v10.863c0 .924.742 1.672 1.658 1.672h11.053c.916 0 1.658-.748 1.658-1.672V10.23l1.658-1.653v9.081c0 1.846-1.484 3.343-3.316 3.343H6.316C4.485 21 3 19.503 3 17.657V6.794c0-1.846 1.485-3.342 3.316-3.342z" fill="#01488A"/>
</svg>
